src/assets/react.svg

<svg width="73" height="64" viewBox="0 0 73 64" fill="none" xmlns="http://www.w3.org/2000/svg">
<path d="M36.5 38.5127C40.1163 38.5127 43.0479 35.5811 43.0479 31.9648C43.0479 28.3486 40.1163 25.417 36.5 25.417C32.8837 25.417 29.9521 28.3486 29.9521 31.9648C29.9521 35.5811 32.8837 38.5127 36.5 38.5127Z" fill="#111F4C"/>
<path d="M36.5 56.044C41.6397 61.0429 46.709 64 50.7926 64C52.1304 64 53.3977 63.7184 54.4538 63.0847C58.115 60.9725 59.4527 55.692 58.1854 48.1584C57.9741 46.8207 57.6925 45.4829 57.3405 44.0748C58.7486 43.6524 60.0159 43.2299 61.2833 42.8075C68.3944 40.0616 72.3372 36.2596 72.3372 32.1056C72.3372 27.8812 68.3944 24.0792 61.2833 21.4037C60.0159 20.9109 58.7486 20.4884 57.3405 20.1364C57.6925 18.7283 57.9741 17.3905 58.1854 16.0528C59.3823 8.37844 58.0446 3.0275 54.3834 0.915292C53.3273 0.281628 52.0599 0 50.7222 0C46.709 0 41.5693 2.9571 36.4296 7.95599C31.3603 2.9571 26.291 0 22.2074 0C20.8696 0 19.6023 0.281628 18.5462 0.915292C14.885 3.0275 13.5473 8.30803 14.8146 15.8416C15.0258 17.1793 15.3075 18.5171 15.6595 19.9252C14.2514 20.3476 12.984 20.7701 11.7167 21.1925C4.6056 23.9384 0.662811 27.7404 0.662811 31.8944C0.662811 36.1188 4.6056 39.9208 11.7167 42.5963C12.984 43.0891 14.2514 43.5116 15.6595 43.8636C15.3075 45.2717 15.0258 46.6095 14.8146 47.9472C13.6177 55.4807 14.9554 60.8317 18.5462 62.8735C19.6023 63.5072 20.8696 63.7888 22.2074 63.7888C26.291 63.9296 31.3603 60.9725 36.5 56.044ZM32.5572 46.5391C33.8245 46.6095 35.1623 46.6095 36.5 46.6095C37.8377 46.6095 39.1755 46.6095 40.4428 46.5391C39.1755 48.2288 37.8377 49.7778 36.5 51.2563C35.1623 49.7778 33.8245 48.2288 32.5572 46.5391ZM23.8267 39.2871C24.5308 40.484 25.1645 41.6106 25.9389 42.7371C23.7563 42.4554 21.7145 42.1034 19.7431 41.681C20.3768 39.78 21.0809 37.8086 21.9257 35.8372C22.489 36.9637 23.1227 38.1606 23.8267 39.2871ZM19.7431 22.319C21.7145 21.8966 23.7563 21.5446 25.9389 21.2629C25.2349 22.3894 24.5308 23.516 23.8267 24.7129C23.1227 25.9098 22.489 27.0363 21.9257 28.2332C21.0104 26.1914 20.3064 24.22 19.7431 22.319ZM23.6155 31.9648C24.5308 30.0638 25.5165 28.1628 26.643 26.2618C27.6991 24.4312 28.896 22.6007 30.093 20.7701C32.2052 20.6293 34.3174 20.5589 36.5 20.5589C38.753 20.5589 40.8652 20.6293 42.907 20.7701C44.1744 22.6007 45.3009 24.4312 46.357 26.2618C47.4835 28.1628 48.4692 30.0638 49.3845 31.9648C48.4692 33.8658 47.4835 35.7668 46.357 37.6678C45.3009 39.4983 44.104 41.3289 42.907 43.1595C40.7948 43.3003 38.6826 43.3707 36.5 43.3707C34.247 43.3707 32.1348 43.3003 30.093 43.1595C28.8256 41.3289 27.6991 39.4983 26.643 37.6678C25.5165 35.7668 24.5308 33.8658 23.6155 31.9648ZM51.1447 28.1628L49.2437 24.6425C48.5396 23.4455 47.9059 22.319 47.1315 21.1925C49.3141 21.4741 51.3559 21.8262 53.3273 22.2486C52.6936 24.22 51.9895 26.1914 51.1447 28.1628ZM51.1447 35.7668C51.9895 37.7382 52.6936 39.7096 53.3273 41.6106C51.3559 42.033 49.3141 42.385 47.1315 42.6667C47.8355 41.5402 48.5396 40.4136 49.2437 39.2167C49.8773 38.1606 50.511 36.9637 51.1447 35.7668ZM52.764 60.198C52.2008 60.5501 51.4967 60.6909 50.7222 60.6909C47.2723 60.6909 42.9774 57.8746 38.753 53.6502C40.7948 51.4675 42.7662 49.0033 44.7376 46.2574C48.0467 45.9758 51.2151 45.4829 54.1722 44.7789C54.5242 46.0462 54.7354 47.3135 54.9466 48.5809C55.9323 54.5655 55.1579 58.8603 52.764 60.198ZM56.4252 23.0935C64.3108 25.3465 69.028 28.7965 69.028 31.9648C69.028 34.7107 65.7893 37.4565 60.0864 39.6392C58.9598 40.0616 57.6925 40.484 56.4252 40.8361C55.5099 37.9494 54.3834 34.9923 52.9752 31.9648C54.3834 28.9373 55.5803 25.9802 56.4252 23.0935ZM50.7926 3.23872C51.5671 3.23872 52.2008 3.37954 52.8344 3.73157C55.1579 5.06931 56.0027 9.29373 55.017 15.3487C54.8058 16.5457 54.5242 17.813 54.2426 19.1507C51.2855 18.5171 48.1172 18.0242 44.808 17.6722C42.907 14.9263 40.8652 12.462 38.8234 10.2794C43.0479 6.12541 47.3427 3.23872 50.7926 3.23872ZM40.4428 17.3905C39.1755 17.3201 37.8377 17.3201 36.5 17.3201C35.1623 17.3201 33.8245 17.3201 32.5572 17.3905C33.8245 15.7008 35.1623 14.1518 36.5 12.6733C37.8377 14.1518 39.1755 15.7712 40.4428 17.3905ZM20.236 3.73157C20.7992 3.37954 21.5033 3.23872 22.2778 3.23872C25.7277 3.23872 30.0225 6.05501 34.247 10.2794C32.2052 12.462 30.2338 14.9263 28.2624 17.6722C24.9532 17.9538 21.7849 18.4466 18.8278 19.1507C18.4758 17.8834 18.2646 16.6161 18.0533 15.3487C17.0677 9.36414 17.8421 5.13971 20.236 3.73157ZM16.5748 40.8361C8.68921 38.5831 3.97194 35.1331 3.97194 31.9648C3.97194 29.2189 7.21067 26.473 12.9136 24.2904C14.0401 23.868 15.3075 23.4455 16.5748 23.0935C17.4901 25.9802 18.6166 28.9373 20.0247 31.9648C18.6166 34.9923 17.4197 38.0198 16.5748 40.8361ZM18.0533 48.5809C18.2646 47.3839 18.5462 46.1166 18.8278 44.7789C21.7849 45.4125 24.9532 45.9054 28.2624 46.2574C30.1634 49.0033 32.2052 51.4675 34.247 53.6502C30.0225 57.8042 25.7277 60.6909 22.2778 60.6909C21.5033 60.6909 20.8696 60.5501 20.236 60.198C17.8421 58.8603 17.0677 54.5655 18.0533 48.5809Z" fill="#111F4C"/>
</svg>

<svg xmlns="http://www.w3.org/2000/svg" width="73" height="64" fill="#4a4970" xmlns:v="https://vecta.io/nano"><path d="M36.5 38.513a6.55 6.55 0 0 0 6.548-6.548 6.55 6.55 0 0 0-6.548-6.548 6.55 6.55 0 0 0-6.548 6.548 6.55 6.55 0 0 0 6.548 6.548z"/><path d="M36.5 56.044C41.64 61.043 46.709 64 50.793 64c1.338 0 2.605-.282 3.661-.915 3.661-2.112 4.999-7.393 3.732-14.926-.211-1.338-.493-2.675-.845-4.084 1.408-.422 2.675-.845 3.943-1.267 7.111-2.746 11.054-6.548 11.054-10.702 0-4.224-3.943-8.026-11.054-10.702-1.267-.493-2.535-.915-3.943-1.267.352-1.408.634-2.746.845-4.084 1.197-7.674-.141-13.025-3.802-15.138C53.327.282 52.06 0 50.722 0c-4.013 0-9.153 2.957-14.293 7.956C31.36 2.957 26.291 0 22.207 0c-1.338 0-2.605.282-3.661.915-3.661 2.112-4.999 7.393-3.732 14.926.211 1.338.493 2.675.845 4.084-1.408.422-2.675.845-3.943 1.267C4.606 23.938.663 27.74.663 31.894c0 4.224 3.943 8.026 11.054 10.702a32.3 32.3 0 0 0 3.943 1.267 46.9 46.9 0 0 0-.845 4.084c-1.197 7.533.141 12.884 3.732 14.926 1.056.634 2.323.915 3.661.915 4.084.141 9.153-2.816 14.293-7.745zm-3.943-9.505c1.267.07 2.605.07 3.943.07s2.675 0 3.943-.07c-1.267 1.69-2.605 3.239-3.943 4.717-1.338-1.479-2.675-3.028-3.943-4.717zm-8.731-7.252c.704 1.197 1.338 2.323 2.112 3.45a75.59 75.59 0 0 1-6.196-1.056c.634-1.901 1.338-3.872 2.183-5.844.563 1.127 1.197 2.323 1.901 3.45zm-4.084-16.968a75.59 75.59 0 0 1 6.196-1.056l-2.112 3.45c-.704 1.197-1.338 2.323-1.901 3.52-.915-2.042-1.619-4.013-2.183-5.914zm3.872 9.646c.915-1.901 1.901-3.802 3.028-5.703 1.056-1.831 2.253-3.661 3.45-5.492 2.112-.141 4.224-.211 6.407-.211 2.253 0 4.365.07 6.407.211 1.267 1.831 2.394 3.661 3.45 5.492 1.127 1.901 2.112 3.802 3.028 5.703-.915 1.901-1.901 3.802-3.028 5.703-1.056 1.831-2.253 3.661-3.45 5.492-2.112.141-4.224.211-6.407.211-2.253 0-4.365-.07-6.407-.211-1.267-1.831-2.394-3.661-3.45-5.492-1.126-1.901-2.112-3.802-3.027-5.703zm27.529-3.802l-1.901-3.52c-.704-1.197-1.338-2.323-2.112-3.45a75.55 75.55 0 0 1 6.196 1.056c-.634 1.971-1.338 3.943-2.183 5.914zm0 7.604c.845 1.971 1.549 3.943 2.183 5.844a75.59 75.59 0 0 1-6.196 1.056l2.112-3.45c.634-1.056 1.267-2.253 1.901-3.45zm1.619 24.431c-.563.352-1.267.493-2.042.493-3.45 0-7.745-2.816-11.969-7.041 2.042-2.183 4.013-4.647 5.985-7.393 3.309-.282 6.477-.774 9.435-1.478.352 1.267.563 2.535.774 3.802.986 5.985.211 10.279-2.183 11.617zm3.661-37.104c7.886 2.253 12.603 5.703 12.603 8.871 0 2.746-3.239 5.492-8.942 7.674a44.74 44.74 0 0 1-3.661 1.197 73.99 73.99 0 0 0-3.45-8.871c1.408-3.027 2.605-5.985 3.45-8.871zM50.793 3.239c.775 0 1.408.141 2.042.493 2.323 1.338 3.168 5.562 2.183 11.617-.211 1.197-.493 2.464-.774 3.802-2.957-.634-6.125-1.126-9.435-1.479a65.05 65.05 0 0 0-5.985-7.393c4.224-4.154 8.519-7.041 11.969-7.041zm-10.35 14.152c-1.267-.07-2.605-.07-3.943-.07s-2.675 0-3.943.07c1.267-1.69 2.605-3.239 3.943-4.717 1.338 1.479 2.675 3.098 3.943 4.717zM20.236 3.732c.563-.352 1.267-.493 2.042-.493 3.45 0 7.745 2.816 11.969 7.041-2.042 2.183-4.013 4.647-5.985 7.393-3.309.282-6.477.774-9.435 1.479-.352-1.267-.563-2.535-.774-3.802-.986-5.985-.211-10.209 2.183-11.617zm-3.661 37.105c-7.886-2.253-12.603-5.703-12.603-8.871 0-2.746 3.239-5.492 8.942-7.674a44.69 44.69 0 0 1 3.661-1.197c.915 2.887 2.042 5.844 3.45 8.871-1.408 3.028-2.605 6.055-3.45 8.871zm1.479 7.745c.211-1.197.493-2.464.774-3.802 2.957.634 6.125 1.127 9.435 1.478 1.901 2.746 3.943 5.21 5.985 7.393-4.224 4.154-8.519 7.041-11.969 7.041-.774 0-1.408-.141-2.042-.493-2.394-1.338-3.168-5.632-2.183-11.617z"/></svg>
